contributed-vectors/_7zipper.svg

<?xml version="1.0" encoding="UTF-8" standalone="no"?>
<svg
   xmlns:dc="http://purl.org/dc/elements/1.1/"
   xmlns:cc="http://creativecommons.org/ns#"
   xmlns:rdf="http://www.w3.org/1999/02/22-rdf-syntax-ns#"
   xmlns:svg="http://www.w3.org/2000/svg"
   xmlns="http://www.w3.org/2000/svg"
   xmlns:sodipodi="http://sodipodi.sourceforge.net/DTD/sodipodi-0.dtd"
   xmlns:inkscape="http://www.inkscape.org/namespaces/inkscape"
   viewBox="0 0 192 192"
   version="1.1"
   id="svg16"
   sodipodi:docname="_7zipper.svg"
   inkscape:version="0.92.4 (5da689c313, 2019-01-14)">
  <metadata
     id="metadata20">
    <rdf:RDF>
      <cc:Work
         rdf:about="">
        <dc:format>image/svg+xml</dc:format>
        <dc:type
           rdf:resource="http://purl.org/dc/dcmitype/StillImage" />
        <dc:title></dc:title>
      </cc:Work>
    </rdf:RDF>
  </metadata>
  <sodipodi:namedview
     pagecolor="#ffffff"
     bordercolor="#666666"
     borderopacity="1"
     objecttolerance="10"
     gridtolerance="10"
     guidetolerance="10"
     inkscape:pageopacity="0"
     inkscape:pageshadow="2"
     inkscape:window-width="1920"
     inkscape:window-height="1017"
     id="namedview18"
     showgrid="true"
     inkscape:zoom="1.7383042"
     inkscape:cx="107.51756"
     inkscape:cy="46.835427"
     inkscape:window-x="-8"
     inkscape:window-y="-8"
     inkscape:window-maximized="1"
     inkscape:current-layer="svg16">
    <inkscape:grid
       type="xygrid"
       id="grid827"
       spacingx="4"
       spacingy="4" />
  </sodipodi:namedview>
  <defs
     id="defs4">
    <style
       id="style2">.a{fill:none;stroke:#b1b5bd;stroke-linecap:round;stroke-linejoin:round;isolation:isolate;opacity:0.63;}</style>
  </defs>
  <rect
     class="a"
     x="32"
     y="8"
     width="128"
     height="176"
     rx="10"
     id="rect12"
     style="fill:#98dc9a;stroke:none;opacity:1" />
  <path
     inkscape:connector-curvature="0"
     d="m 92,8 v 88.398 c 0,2.216 1.784,4 4,4 2.216,0 4,-1.784 4,-4 V 8 Z"
     style="fill:#4a4a4a;stroke-width:3.90899992;paint-order:stroke fill markers"
     id="path4"
     sodipodi:nodetypes="cssscc" />
  <path
     style="fill:#a0a5af;stroke-width:4;paint-order:stroke fill markers"
     d="M 88.921875,16 C 88.411991,16 88,16.411995 88,16.921875 v 2.15625 C 88,19.588005 88.411991,20 88.921875,20 h 6.15625 C 95.588009,20 96,19.588005 96,19.078125 v -2.15625 C 96,16.411995 95.588009,16 95.078125,16 Z m 8,4 C 96.411991,20 96,20.411995 96,20.921875 v 2.15625 C 96,23.588005 96.411991,24 96.921875,24 h 6.156245 C 103.58801,24 104,23.588005 104,23.078125 v -2.15625 C 104,20.411995 103.58801,20 103.07812,20 Z m -8,4 C 88.411991,24 88,24.411995 88,24.921875 v 2.15625 C 88,27.588005 88.411991,28 88.921875,28 h 6.15625 C 95.588009,28 96,27.588005 96,27.078125 v -2.15625 C 96,24.411995 95.588009,24 95.078125,24 Z m 8,4 C 96.411991,28 96,28.411995 96,28.921875 v 2.15625 C 96,31.588005 96.411991,32 96.921875,32 h 6.156245 C 103.58801,32 104,31.588005 104,31.078125 v -2.15625 C 104,28.411995 103.58801,28 103.07812,28 Z m -8,4.398438 C 88.411991,32.398438 88,32.810433 88,33.320312 v 2.15625 c 0,0.509881 0.411991,0.921876 0.921875,0.921876 h 6.15625 C 95.588009,36.398438 96,35.986443 96,35.476562 v -2.15625 c 0,-0.509879 -0.411991,-0.921875 -0.921875,-0.921874 z m 8,4 C 96.411991,36.398438 96,36.810433 96,37.320312 v 2.15625 c 0,0.509881 0.411991,0.921876 0.921875,0.921876 h 6.156245 c 0.50989,0 0.92188,-0.411995 0.92188,-0.921876 v -2.15625 c 0,-0.509879 -0.41199,-0.921875 -0.92188,-0.921874 z m -8,4 C 88.411991,40.398438 88,40.810433 88,41.320312 v 2.15625 c 0,0.509881 0.411991,0.921876 0.921875,0.921876 h 6.15625 C 95.588009,44.398438 96,43.986443 96,43.476562 v -2.15625 c 0,-0.509879 -0.411991,-0.921875 -0.921875,-0.921874 z m 8,4 C 96.411991,44.398438 96,44.810433 96,45.320312 v 2.15625 c 0,0.509881 0.411991,0.921876 0.921875,0.921876 h 6.156245 c 0.50989,0 0.92188,-0.411995 0.92188,-0.921876 v -2.15625 c 0,-0.509879 -0.41199,-0.921875 -0.92188,-0.921874 z m -8,4 C 88.411991,48.398438 88,48.810433 88,49.320312 v 2.15625 c 0,0.509881 0.411991,0.921876 0.921875,0.921876 h 6.15625 C 95.588009,52.398438 96,51.986443 96,51.476562 v -2.15625 c 0,-0.509879 -0.411991,-0.921875 -0.921875,-0.921874 z m 8,4 C 96.411991,52.398438 96,52.810433 96,53.320312 v 2.15625 c 0,0.509881 0.411991,0.921876 0.921875,0.921876 h 6.156245 c 0.50989,0 0.92188,-0.411995 0.92188,-0.921876 v -2.15625 c 0,-0.509879 -0.41199,-0.921875 -0.92188,-0.921874 z m -8,4 C 88.411991,56.398438 88,56.810433 88,57.320312 v 2.15625 c 0,0.509881 0.411991,0.921876 0.921875,0.921876 h 6.15625 C 95.588009,60.398438 96,59.986443 96,59.476562 v -2.15625 c 0,-0.509879 -0.411991,-0.921875 -0.921875,-0.921874 z m 8,4 C 96.411991,60.398438 96,60.810433 96,61.320312 v 2.15625 c 0,0.509881 0.411991,0.921876 0.921875,0.921876 h 6.156245 c 0.50989,0 0.92188,-0.411995 0.92188,-0.921876 v -2.15625 c 0,-0.509879 -0.41199,-0.921875 -0.92188,-0.921874 z m -8,4 C 88.411991,64.398438 88,64.810432 88,65.320312 v 2.15625 c 0,0.50988 0.411991,0.921876 0.921875,0.921876 h 6.15625 C 95.588009,68.398438 96,67.986442 96,67.476562 v -2.15625 c 0,-0.509879 -0.411991,-0.921875 -0.921875,-0.921874 z m 8,4 C 96.411991,68.398438 96,68.810432 96,69.320312 v 2.15625 c 0,0.50988 0.411991,0.921876 0.921875,0.921876 h 6.156245 c 0.50989,0 0.92188,-0.411996 0.92188,-0.921876 v -2.15625 c 0,-0.509879 -0.41199,-0.921875 -0.92188,-0.921874 z m -8,4 C 88.411991,72.398438 88,72.810432 88,73.320312 v 2.15625 c 0,0.50988 0.411991,0.921876 0.921875,0.921876 h 6.15625 C 95.588009,76.398438 96,75.986442 96,75.476562 v -2.15625 c 0,-0.509879 -0.411991,-0.921875 -0.921875,-0.921874 z m 8,4 C 96.411991,76.398438 96,76.810432 96,77.320312 v 2.15625 c 0,0.50988 0.411991,0.921876 0.921875,0.921876 h 6.156245 c 0.50989,0 0.92188,-0.411996 0.92188,-0.921876 v -2.15625 c 0,-0.509879 -0.41199,-0.921875 -0.92188,-0.921874 z m -8,4 C 88.411991,80.398438 88,80.810432 88,81.320312 v 2.15625 c 0,0.50988 0.411991,0.921876 0.921875,0.921876 h 6.15625 C 95.588009,84.398438 96,83.986442 96,83.476562 v -2.15625 c 0,-0.509879 -0.411991,-0.921875 -0.921875,-0.921874 z m 8,4 C 96.411991,84.398438 96,84.810432 96,85.320312 v 2.15625 c 0,0.50988 0.411991,0.921876 0.921875,0.921876 h 6.156245 c 0.50989,0 0.92188,-0.411996 0.92188,-0.921876 v -2.15625 c 0,-0.509879 -0.41199,-0.921875 -0.92188,-0.921874 z m -8,4 C 88.411991,88.398438 88,88.810432 88,89.320312 v 2.15625 c 0,0.50988 0.411991,0.921876 0.921875,0.921876 h 6.15625 C 95.588009,92.398438 96,91.986442 96,91.476562 v -2.15625 c 0,-0.509879 -0.411991,-0.921874 -0.921875,-0.921874 z m 8,4 C 96.411991,92.398438 96,92.810432 96,93.320312 v 2.15625 c 0,0.50988 0.411991,0.921876 0.921875,0.921876 h 6.156245 c 0.50989,0 0.92188,-0.411996 0.92188,-0.921876 v -2.15625 c 0,-0.509879 -0.41199,-0.921874 -0.92188,-0.921874 z"
     id="path6"
     inkscape:connector-curvature="0"
     sodipodi:nodetypes="ssssssssssssssssssssssssssssssssssssssssssscsssssssscsssssssscsssssssscsssssssscsssssssscsssssssscsssssssscsssssssscsssssssscsssssssscsssssssscsssssssscsssssssscsssssssssssssssssss" />
  <rect
     x="88"
     y="12"
     width="16"
     height="20"
     ry="4"
     style="fill:#cccccc;stroke-width:4;paint-order:stroke fill markers"
     id="rect8" />
  <path
     inkscape:connector-curvature="0"
     d="m 92.5,19.999999 c -1.939,0 -3.5,1.6725 -3.5,3.75 v 22.5 c 0,2.0775 1.561,3.75 3.5,3.75 h 7 c 1.939,0 3.5,-1.6725 3.5,-3.75 v -22.5 c 0,-2.0775 -1.561,-3.75 -3.5,-3.75 z m 1.7363,3.75 h 3.5273 c 0.96299,0 1.7363,0.8286 1.7363,1.8604 v 7.5293 c 0,1.0318 -0.77335,1.8604 -1.7363,1.8604 h -3.5273 c -0.96299,0 -1.7363,-0.8286 -1.7363,-1.8604 v -7.5293 c 0,-1.0318 0.77335,-1.8604 1.7363,-1.8604 z m 0,15 h 3.5273 c 0.96299,0 1.7363,0.8286 1.7363,1.8604 v 3.7793 c 0,1.0318 -0.77335,1.8604 -1.7363,1.8604 h -3.5273 c -0.96299,0 -1.7363,-0.8286 -1.7363,-1.8604 v -3.7793 c 0,-1.0318 0.77335,-1.8604 1.7363,-1.8604 z"
     style="fill:#ececec;stroke-width:3.62280011;paint-order:stroke fill markers"
     id="path10" />
  <rect
     x="93"
     y="14"
     width="6"
     height="16"
     ry="1.9865"
     style="fill:#d8d8d8;stroke-width:3.46409988;paint-order:stroke fill markers"
     id="rect12-7" />
  <text
     xml:space="preserve"
     style="font-style:normal;font-variant:normal;font-weight:normal;font-stretch:normal;font-size:20.77343559px;line-height:1.25;font-family:Aleo;-inkscape-font-specification:Aleo;letter-spacing:0px;word-spacing:0px;fill:#71a372;fill-opacity:1;stroke:none;stroke-width:0.51933587"
     x="55.338799"
     y="148.54649"
     id="text834"><tspan
       sodipodi:role="line"
       id="tspan832"
       x="55.338799"
       y="148.54649"
       style="font-style:normal;font-variant:normal;font-weight:bold;font-stretch:normal;font-family:Now;-inkscape-font-specification:'Now Bold';fill:#71a372;stroke-width:0.51933587">7Zipper</tspan></text>
</svg>

<svg xmlns="http://www.w3.org/2000/svg" viewBox="0 0 192 192"><rect width="128" height="176" x="32" y="8" rx="10" style="fill:#98dc9a;stroke:none;opacity:1;stroke-linecap:round;stroke-linejoin:round;isolation:isolate"/><path d="M92 8v88.398c0 2.216 1.784 4 4 4s4-1.784 4-4V8Z" style="fill:#4a4a4a;stroke-width:3.90899992;paint-order:stroke fill markers"/><path d="M88.922 16a.92.92 0 0 0-.922.922v2.156c0 .51.412.922.922.922h6.156a.92.92 0 0 0 .922-.922v-2.156a.92.92 0 0 0-.922-.922Zm8 4a.92.92 0 0 0-.922.922v2.156c0 .51.412.922.922.922h6.156a.92.92 0 0 0 .922-.922v-2.156a.92.92 0 0 0-.922-.922Zm-8 4a.92.92 0 0 0-.922.922v2.156c0 .51.412.922.922.922h6.156a.92.92 0 0 0 .922-.922v-2.156a.92.92 0 0 0-.922-.922Zm8 4a.92.92 0 0 0-.922.922v2.156c0 .51.412.922.922.922h6.156a.92.92 0 0 0 .922-.922v-2.156a.92.92 0 0 0-.922-.922Zm-8 4.398a.92.92 0 0 0-.922.922v2.157c0 .51.412.921.922.921h6.156a.92.92 0 0 0 .922-.921V33.32a.92.92 0 0 0-.922-.922zm8 4a.92.92 0 0 0-.922.922v2.157c0 .51.412.921.922.921h6.156a.92.92 0 0 0 .922-.921V37.32a.92.92 0 0 0-.922-.922zm-8 4a.92.92 0 0 0-.922.922v2.157c0 .51.412.921.922.921h6.156a.92.92 0 0 0 .922-.921V41.32a.92.92 0 0 0-.922-.922zm8 4a.92.92 0 0 0-.922.922v2.157c0 .51.412.921.922.921h6.156a.92.92 0 0 0 .922-.921V45.32a.92.92 0 0 0-.922-.922zm-8 4a.92.92 0 0 0-.922.922v2.157c0 .51.412.921.922.921h6.156a.92.92 0 0 0 .922-.921V49.32a.92.92 0 0 0-.922-.922zm8 4a.92.92 0 0 0-.922.922v2.157c0 .51.412.921.922.921h6.156a.92.92 0 0 0 .922-.921V53.32a.92.92 0 0 0-.922-.922zm-8 4a.92.92 0 0 0-.922.922v2.157c0 .51.412.921.922.921h6.156a.92.92 0 0 0 .922-.921V57.32a.92.92 0 0 0-.922-.922zm8 4a.92.92 0 0 0-.922.922v2.157c0 .51.412.921.922.921h6.156a.92.92 0 0 0 .922-.921V61.32a.92.92 0 0 0-.922-.922zm-8 4a.92.92 0 0 0-.922.922v2.157c0 .51.412.921.922.921h6.156a.92.92 0 0 0 .922-.921V65.32a.92.92 0 0 0-.922-.922zm8 4a.92.92 0 0 0-.922.922v2.157c0 .51.412.921.922.921h6.156a.92.92 0 0 0 .922-.921V69.32a.92.92 0 0 0-.922-.922zm-8 4a.92.92 0 0 0-.922.922v2.157c0 .51.412.921.922.921h6.156a.92.92 0 0 0 .922-.921V73.32a.92.92 0 0 0-.922-.922zm8 4a.92.92 0 0 0-.922.922v2.157c0 .51.412.921.922.921h6.156a.92.92 0 0 0 .922-.921V77.32a.92.92 0 0 0-.922-.922zm-8 4a.92.92 0 0 0-.922.922v2.157c0 .51.412.921.922.921h6.156a.92.92 0 0 0 .922-.921V81.32a.92.92 0 0 0-.922-.922zm8 4a.92.92 0 0 0-.922.922v2.157c0 .51.412.921.922.921h6.156a.92.92 0 0 0 .922-.921V85.32a.92.92 0 0 0-.922-.922zm-8 4a.92.92 0 0 0-.922.922v2.157c0 .51.412.921.922.921h6.156a.92.92 0 0 0 .922-.921V89.32a.92.92 0 0 0-.922-.922zm8 4a.92.92 0 0 0-.922.922v2.157c0 .51.412.921.922.921h6.156a.92.92 0 0 0 .922-.921V93.32a.92.92 0 0 0-.922-.922z" style="fill:#a0a5af;stroke-width:4;paint-order:stroke fill markers"/><rect width="16" height="20" x="88" y="12" ry="4" style="fill:#ccc;stroke-width:4;paint-order:stroke fill markers"/><path d="M92.5 20c-1.939 0-3.5 1.672-3.5 3.75v22.5c0 2.077 1.561 3.75 3.5 3.75h7c1.939 0 3.5-1.673 3.5-3.75v-22.5c0-2.078-1.561-3.75-3.5-3.75zm1.736 3.75h3.528c.963 0 1.736.829 1.736 1.86v7.53c0 1.031-.773 1.86-1.736 1.86h-3.528c-.963 0-1.736-.829-1.736-1.86v-7.53c0-1.031.773-1.86 1.736-1.86zm0 15h3.528c.963 0 1.736.829 1.736 1.86v3.78c0 1.031-.773 1.86-1.736 1.86h-3.528c-.963 0-1.736-.829-1.736-1.86v-3.78c0-1.031.773-1.86 1.736-1.86z" style="fill:#ececec;stroke-width:3.62280011;paint-order:stroke fill markers"/><rect width="6" height="16" x="93" y="14" ry="1.986" style="fill:#d8d8d8;stroke-width:3.46409988;paint-order:stroke fill markers"/><text xml:space="preserve" x="55.339" y="148.546" style="font-style:normal;font-variant:normal;font-weight:400;font-stretch:normal;font-size:20.77343559px;line-height:1.25;font-family:Aleo;-inkscape-font-specification:Aleo;letter-spacing:0;word-spacing:0;fill:#71a372;fill-opacity:1;stroke:none;stroke-width:.51933587"><tspan x="55.339" y="148.546" style="font-style:normal;font-variant:normal;font-weight:700;font-stretch:normal;font-family:Now;-inkscape-font-specification:&quot;Now Bold&quot;;fill:#71a372;stroke-width:.51933587">7Zipper</tspan></text></svg>
